icons/entity/icon_moneybox_xxl_white.svg

<?xml version="1.0" encoding="UTF-8"?>
<svg width="48px" height="48px" viewBox="0 0 48 48" version="1.1" xmlns="http://www.w3.org/2000/svg" xmlns:xlink="http://www.w3.org/1999/xlink">
    <!-- Generator: Sketch 47.1 (45422) - http://www.bohemiancoding.com/sketch -->
    <title>icon_category_moneybox__xxl__white</title>
    <desc>Created with Sketch.</desc>
    <defs></defs>
    <g id="Page-1" stroke="none" stroke-width="1" fill="none" fill-rule="evenodd">
        <g id="icon_category_moneybox__xxl__white" fill="#FFFFFF">
            <path d="M7.1326996,14.464797 C7.0594879,14.3387335 6.96274623,14.1886517 6.8212109,13.9793139 C6.77245794,13.9072059 6.49734539,13.5052203 6.41623322,13.3848238 C6.28247611,13.1862854 6.17189228,13.0166736 6.07079372,12.853204 C5.2535098,11.531711 5.06237939,10.588436 6.01753706,10.059046 C6.77264817,9.64053057 7.80220717,9.88362562 9.38742594,10.6044548 C9.59657762,10.69956 9.81435947,10.8025174 10.0711492,10.9269106 C11.7290994,11.7300491 12.2187908,11.9354768 12.2626398,11.9129569 C16.2382755,9.87116212 19.1948195,9 22.7357212,9 C33.2603349,9 41.2032348,15.4559852 41.2032348,23.8076923 C41.2032348,28.1574508 39.0083641,32.1434724 35.1910191,34.8970098 C35.1903724,35.0917485 35.2091546,35.3445639 35.2477166,35.6776031 C35.3274634,36.3663311 35.4893118,37.3800475 35.7330187,38.7150756 L35.8116034,39.145563 L31.546527,40.5281055 L31.3364313,40.2134566 C30.6984592,39.2580006 30.1971125,38.5511245 29.8355668,38.0963524 C29.6829756,37.9044147 29.5579314,37.7608934 29.4646995,37.6688064 C27.3685601,38.2927158 25.1037729,38.6153846 22.7357212,38.6153846 C20.3263082,38.6153846 17.667278,38.1259329 14.9294544,37.2201831 C14.8075727,37.3355248 14.6357886,37.5208514 14.4182092,37.7729406 C13.9562505,38.3081695 13.2985552,39.1314232 12.4474206,40.240253 L12.2368474,40.5145808 L7.70899887,39.1432728 L7.83346428,38.6761355 C8.22518282,37.2059571 8.48573746,36.0884562 8.61460155,35.3289077 C8.67630991,34.9651873 8.70660694,34.6896265 8.70671564,34.5103635 C8.70672307,34.498106 8.68900908,34.4433696 8.65357366,34.3461543 C7.36159387,31.5192658 4.51452477,29.1403966 0.295093762,27.2447238 L0,27.1121463 L7.66053887e-14,21.2983477 L0.296904002,21.1663696 C3.09601091,19.9221257 4.48071598,18.7135782 6.04393747,16.4343092 C6.22066711,16.176627 6.40326872,15.9021546 6.64231485,15.5366507 C6.70183123,15.4456495 7.05393995,14.904911 7.22640712,14.6410343 C7.20465756,14.5942947 7.17338528,14.5348538 7.1326996,14.464797 Z M15.0279269,36.1986278 C17.7469115,37.1190514 20.3790252,37.6153846 22.7357212,37.6153846 C25.0818719,37.6153846 27.3173846,37.28605 29.3736097,36.6515016 C29.9268767,36.480764 30.4607763,37.1145871 31.9575307,39.343651 L34.6710969,38.4640371 C34.1258567,35.4418298 34.0359835,34.4890767 34.4655232,34.1861789 C38.1179854,31.6105779 40.2032348,27.8764962 40.2032348,23.8076923 C40.2032348,16.0592649 32.748426,10 22.7357212,10 C19.3735043,10 16.5649723,10.8275496 12.7194892,12.802501 C12.3665832,12.9837454 11.9601185,12.8928236 11.2961313,12.614278 C11.0758716,12.5218781 10.8300935,12.4084705 10.5041895,12.2509735 C10.3579382,12.1802958 9.77563712,11.8949119 9.63519051,11.8268773 C9.38512354,11.7057407 9.17430143,11.6060736 8.97349204,11.5147617 C7.69590221,10.9338173 6.85872342,10.7361462 6.50230286,10.93369 C6.30423996,11.0434651 6.3904373,11.4688699 6.92128436,12.3272138 C7.01463489,12.4781553 7.11850116,12.6374639 7.24557807,12.8260867 C7.32410502,12.9426459 7.59859135,13.3437165 7.64963292,13.4192095 C7.80292109,13.6459303 7.91020135,13.8123613 7.99744818,13.9625919 C8.31014325,14.5010226 8.41708037,14.8723726 8.0741571,15.171792 C7.90710102,15.4273002 7.54084885,15.9897675 7.47921862,16.0840007 C7.23650812,16.4551076 7.05021005,16.7351361 6.86861668,16.99991 C5.26122261,19.3435852 3.78256894,20.6659307 1,21.9459246 C1,22.3584533 1,22.6533073 1,24.2218983 C1,25.7710525 1,26.0744123 1,26.4668421 C5.22425551,28.4156101 8.13626596,30.8761456 9.52723531,33.8529033 C9.89773779,34.3383941 9.67292379,35.6146245 8.923476,38.466234 L11.8649094,39.357079 C13.964718,36.6271734 14.5078146,36.0225607 15.0279269,36.1986278 Z" id="Oval-Copy" fill-rule="nonzero"></path>
            <path d="M18.8297803,15.4295936 C21.7499921,14.5403093 24.8298046,14.560461 27.3767927,15.4204203 L28.0165843,13.5255148 C25.0682704,12.5300528 21.5612483,12.5071058 18.2471428,13.5163415 L18.8297803,15.4295936 Z" id="Path-2-Copy" fill-rule="nonzero" opacity="0.300000012"></path>
            <circle id="Oval-2-Copy" opacity="0.300000012" cx="9.80769231" cy="21.2692308" r="1.73076923"></circle>
            <path d="M45.2557083,20.5448909 C45.2557083,19.8293645 44.8328192,19.4313581 44.250064,19.4391856 C43.6593856,19.4471195 43.1992416,19.870363 43.1745894,20.5626837 C43.1393076,21.5535153 43.4769023,22.326213 44.2435817,22.853204 C44.9289222,22.325754 45.2557083,21.549615 45.2557083,20.5448909 Z M44.2747649,24.006656 C43.4381528,24.4413937 42.3426655,24.6696603 41,24.6696603 L41,23.6696603 C41.9095652,23.6696603 42.6650338,23.5635558 43.2742685,23.3563224 C43.6533615,23.2273726 43.9758345,23.0592669 44.2435817,22.853204 C44.5152805,23.0399611 44.8408671,23.1958604 45.2228432,23.3196748 C45.9345019,23.5503531 46.8418959,23.6696603 47.9612032,23.6696603 L47.9612032,24.6696603 C46.4313858,24.6696603 45.2011282,24.4413671 44.2747649,24.006656 C43.8882592,23.8252818 43.5546555,23.6079743 43.2742685,23.3563224 C42.5016896,22.6629201 42.1331457,21.7087662 42.1752227,20.5270981 C42.2193471,19.2879326 43.1257721,18.4541967 44.2366333,18.4392758 C45.3665434,18.4240989 46.2557083,19.2609457 46.2557083,20.5448909 C46.2557083,21.6978051 45.9058905,22.6330364 45.2228432,23.3196748 C44.9569768,23.5869391 44.6406246,23.8165404 44.2747649,24.006656 Z" id="Path-3-Copy" fill-rule="nonzero"></path>
            <rect id="Rectangle-2-Copy-2" fill-opacity="0" x="0" y="1" width="48" height="48"></rect>
        </g>
    </g>
</svg>

<svg width="48" height="48" viewBox="0 0 48 48" xmlns="http://www.w3.org/2000/svg">
  <g fill="#FFF" fill-rule="evenodd">
    <path d="M7.133 14.465c-.074-.126-.17-.276-.312-.486-.048-.073-.323-.475-.404-.595-.134-.2-.244-.368-.345-.532-.816-1.32-1.008-2.265-.052-2.794.755-.42 1.784-.176 3.37.544.21.096.426.2.683.323 1.66.803 2.15 1.008 2.193.986C16.238 9.87 19.195 9 22.736 9c10.524 0 18.467 6.456 18.467 14.808 0 4.35-2.195 8.335-6.012 11.09 0 .194.02.447.058.78.08.688.24 1.702.485 3.037l.08.43-4.266 1.383-.21-.315c-.64-.955-1.14-1.662-1.5-2.117-.154-.192-.28-.335-.372-.427-2.096.623-4.36.945-6.73.945-2.41 0-5.068-.49-7.806-1.395-.122.116-.294.3-.512.553-.462.535-1.12 1.358-1.97 2.467l-.21.275-4.53-1.372.125-.467c.392-1.47.653-2.588.782-3.347.06-.365.092-.64.092-.82 0-.012-.018-.067-.053-.164-1.292-2.827-4.14-5.206-8.36-7.1L0 27.11v-5.814l.297-.132c2.8-1.244 4.184-2.452 5.747-4.732.177-.257.36-.532.598-.897.06-.09.412-.632.584-.896-.02-.046-.053-.105-.093-.175zM15.028 36.2c2.72.92 5.35 1.415 7.708 1.415 2.346 0 4.58-.33 6.638-.963.553-.17 1.087.463 2.584 2.692l2.713-.88c-.544-3.022-.634-3.975-.204-4.278 3.652-2.575 5.737-6.31 5.737-10.378 0-7.75-7.455-13.808-17.467-13.808-3.362 0-6.17.828-10.017 2.803-.353.18-.76.09-1.424-.19-.22-.09-.466-.205-.792-.362l-.87-.423c-.25-.12-.46-.22-.66-.312-1.278-.58-2.115-.78-2.472-.58-.198.108-.112.534.42 1.392.093.15.197.31.324.5l.404.592c.153.226.26.392.347.543.313.538.42.91.077 1.21l-.595.91c-.243.372-.43.652-.61.917-1.61 2.344-3.087 3.666-5.87 4.946v4.521c4.224 1.95 7.136 4.41 8.527 7.386.37.485.146 1.762-.604 4.613l2.942.89c2.1-2.73 2.643-3.333 3.163-3.157z" fill-rule="nonzero"/>
    <path d="M18.83 15.43c2.92-.89 6-.87 8.547-.01l.64-1.894c-2.95-.996-6.456-1.02-9.77-.01l.583 1.914z" fill-rule="nonzero" opacity=".3"/>
    <circle opacity=".3" cx="9.808" cy="21.269" r="1.731"/>
    <path d="M45.256 20.545c0-.716-.423-1.114-1.006-1.106-.59.007-1.05.43-1.075 1.123-.036.99.302 1.763 1.07 2.29.684-.527 1.01-1.303 1.01-2.308zm-.98 3.462c-.838.434-1.933.663-3.276.663v-1c.91 0 1.665-.106 2.274-.314.38-.13.702-.297.97-.503.27.187.597.343.98.467.71.23 1.618.35 2.737.35v1c-1.53 0-2.76-.23-3.685-.663-.387-.182-.72-.4-1-.65-.773-.694-1.142-1.648-1.1-2.83.044-1.24.95-2.073 2.062-2.088 1.13-.016 2.02.82 2.02 2.105 0 1.153-.35 2.088-1.034 2.775-.266.267-.582.497-.948.687z" fill-rule="nonzero"/>
    <path fill="none" d="M0 1h48v48H0z"/>
  </g>
</svg>
